X:2664
L:1/8
M:4/4
K:G
 g2 gb afdf | ge (3gbg f2 d2 | gf/e/ ag/f/ ba/g/ ag/f/ | ge ed/c/ B2 G2 :: (3cec Ac (3BdB G3 d | 
 ge (gbg) f2 d2 | (3cec Ac (3BdB G3 e | ge ed/c/ B2 G2 :: g/f/e ag/f/ ba/g/ ag/f/ | 
 ge (3gbg f2 d2 | geaf bgaf | ge ed/c/ B2 G2 :: (3BdB ge dB G2 | ge (3gbg f2 d2 | (3BdB ge dB GB | 
 ge (3edc B2 G2 :|

